X: 4
T: Missa [Bergerette savoysienne] / Sanctus
N: Derived from Ano1001d-Missa_Bergerette_savoysienne-Sanctus-Jena_32.krn
C: Anonymous
%%abc-version 2.0
%%abcx-abcm2ps-target-version 5.9.1 (29 Sep 2008)
%%abc-creator hum2abc beta
%%abcx-conversion-date 2019/02/16 20:18:26
%%abc-edited-by Jesse Rodin
%%abc-edited-by Jesse Rodin 8/14/2013
%%abcx-initial-encoding-date 2013/08/14/
%%humdrum-veritas 3576201218
%%humdrum-veritas-data 1559192481
%%linebreak <none>
%%barnumbers 0
L: 1/4
M: 4/2
Q: 1/2=120
%%staves [1 2 3 4]
V: 1 clef=treble
V: 2 clef=treble-8
V: 3 clef=treble-8
V: 4 clef=bass
K: C
[V:1] z8 | 
[V:2] c8 | 
[V:3] z8 | 
[V:4] z8 | 
[V:1] z4c4- | 
[V:2] d4e4- | 
[V:3] z8 | 
[V:4] z8 | 
[V:1] c4d4 | 
[V:2] e2f3dfe/d/ | 
[V:3] z8 | 
[V:4] z8 | 
[V:1] e4e4 | 
[V:2] c2g2agc'2- | 
[V:3] z8 | 
[V:4] z8 | 
[V:1] e2e3dc2- | 
[V:2] c'ba2g2a2- | 
[V:3] z8 | 
[V:4] z8 | 
[V:1] c2BAB4 | 
[V:2] a2gfg2de | 
[V:3] z8 | 
[V:4] z8 | 
[V:1] z4f4 | 
[V:2] fg2fd2a2- | 
[V:3] z8 | 
[V:4] z8 | 
[V:1] f2e2cd2c/B/ | 
[V:2] a2g2ef2e/d/ | 
[V:3] z8 | 
[V:4] z8 | 
[V:1] AGc4B2 | 
[V:2] c2e2d4 | 
[V:3] z8 | 
[V:4] z4G,4 | 
[V:1] c8 | 
[V:2] c3BG2A2- | 
[V:3] c8 | 
[V:4] C,3D,E,2F,2- | 
[V:1] z4G3A | 
[V:2] A2B2c2B2- | 
[V:3] d4e4 | 
[V:4] F,2G,2E,3F, | 
[V:1] B2c2A2B2- | 
[V:2] B2A2c2B2- | 
[V:3] e4e2e2- | 
[V:4] G,2A,4G,2 | 
[V:1] B2G2A4 | 
[V:2] B2e4d2 | 
[V:3] edc4BA | 
[V:4] E,4F,4 | 
[V:1] G6c2- | 
[V:2] e4e2e2- | 
[V:3] B4z2c2- | 
[V:4] E,6A,2- | 
[V:1] c2BAB2c2 | 
[V:2] e2dcd2e2 | 
[V:3] cdefg2c2 | 
[V:4] A,4G,2C2 | 
[V:1] d2e3dc2 | 
[V:2] d2g4^f2 | 
[V:3] gfedc4 | 
[V:4] B,2C2A,4 | 
[V:1] B6d2- | 
[V:2] g8 | 
[V:3] d8 | 
[V:4] G,8 | 
[V:1] d2cBA4 | 
[V:2] a4a2f2- | 
[V:3] f6ed | 
[V:4] D,8 | 
[V:1] z2A2e4 | 
[V:2] fed4^c2 | 
[V:3] c2d2G4 | 
[V:4] F,4E,4 | 
[V:1] f8 | 
[V:2] d8 | 
[V:3] A6B2 | 
[V:4] D,8 | 
[V:1] e4d4- | 
[V:2] G3A_B4- | 
[V:3] c4f4- | 
[V:4] C,4_B,,4- | 
[V:1] d4e3d/c/ | 
[V:2] B4G4 | 
[V:3] f4e4 | 
[V:4] B,,4C,4 | 
[V:1] B2c4B2 | 
[V:2] z4g4 | 
[V:3] d6cd | 
[V:4] G,8 | 
[V:1] c3B/A/G2A2 | 
[V:2] e3fg2f2 | 
[V:3] c8 | 
[V:4] A,3G,/F,/E,2F,2 | 
[V:1] G2g3fed/c/ | 
[V:2] d2e3fg2- | 
[V:3] B2cBc4 | 
[V:4] G,2E,4C,2 | 
[V:1] B2cd2c2B | 
[V:2] g4f2g2 | 
[V:3] d8 | 
[V:4] G,4z2G,2 | 
[V:1] c8- | 
[V:2] e2f4g2 | 
[V:3] c8- | 
[V:4] A,2F,4E,2 | 
[V:1] c8- | 
[V:2] a2g2fa2g/f/ | 
[V:3] c8- | 
[V:4] F,2C,2F,3E,/D,/ | 
[V:1] c8 ||  
[V:2] g8 ||  
[V:3] c8 ||  
[V:4] C,8 ||  
[V:1]  [K:C] [K:clef=treble][M:2/1]d6cB | 
[V:2]  [K:C] [K:clef=treble-8][M:2/1]z8 | 
[V:3]  [K:C] [K:clef=treble-8][M:2/1]z8 | 
[V:4]  [K:C] [K:clef=bass][M:2/1]z8 | 
[V:1] c4d2B2- | 
[V:2] z4g4- | 
[V:3] z8 | 
[V:4] z8 | 
[V:1] B2AGA4 | 
[V:2] g2fef4 | 
[V:3] z8 | 
[V:4] z8 | 
[V:1] G4z4 | 
[V:2] g2e4dc | 
[V:3] z8 | 
[V:4] z8 | 
[V:1] d4e2c2- | 
[V:2] d4c4 | 
[V:3] z8 | 
[V:4] z8 | 
[V:1] c2BAB4 | 
[V:2] z4g4 | 
[V:3] z8 | 
[V:4] z8 | 
[V:1] A4z4 | 
[V:2] a2f4ed | 
[V:3] z8 | 
[V:4] z8 | 
[V:1] e4f2d2- | 
[V:2] e4d4 | 
[V:3] z8 | 
[V:4] z8 | 
[V:1] d2cBc4 | 
[V:2] z4a4 | 
[V:3] z8 | 
[V:4] z8 | 
[V:1] B4z2e2- | 
[V:2] b2g4fe | 
[V:3] z8 | 
[V:4] z8 | 
[V:1] e2d2c2BA | 
[V:2] f4e4 | 
[V:3] z8 | 
[V:4] z8 | 
[V:1] G2c3Bcd | 
[V:2] z2e3def | 
[V:3] z8 | 
[V:4] z8 | 
[V:1] B2c2d2e2- | 
[V:2] d2e2f2g2- | 
[V:3] z8 | 
[V:4] z8 | 
[V:1] edefd2ed | 
[V:2] gfgaf2gf | 
[V:3] z8 | 
[V:4] z8 | 
[V:1] cBe2d2c2 | 
[V:2] edg3fe2 | 
[V:3] z8 | 
[V:4] z8 | 
[V:1] d2cBA4 | 
[V:2] d2g4^f2 | 
[V:3] z8 | 
[V:4] z8 | 
[V:1] G8 ||  
[V:2] g8 ||  
[V:3] z8 ||  
[V:4] z8 ||  
[V:1]  [K:C] [K:clef=treble][M:2/1]z8 | 
[V:2]  [K:C] [K:clef=treble-8][M:2/1]z8 | 
[V:3]  [K:C] [K:clef=treble-8][M:2/1]g6fe | 
[V:4]  [K:C] [K:clef=bass][M:2/1]z8 | 
[V:1] z8 | 
[V:2] z8 | 
[V:3] f4g2e2- | 
[V:4] z4C4- | 
[V:1] z8 | 
[V:2] z8 | 
[V:3] e2dcd4 | 
[V:4] C2B,A,B,4 | 
[V:1] z8 | 
[V:2] z8 | 
[V:3] c4z4 | 
[V:4] C2A,4G,F, | 
[V:1] z8 | 
[V:2] z8 | 
[V:3] g4a2f2- | 
[V:4] G,4F,4 | 
[V:1] z8 | 
[V:2] z8 | 
[V:3] f2ede4 | 
[V:4] z4C4 | 
[V:1] z8 | 
[V:2] z8 | 
[V:3] d4z4 | 
[V:4] D2B,4A,G, | 
[V:1] z8 | 
[V:2] z8 | 
[V:3] a4b2g2- | 
[V:4] A,4G,4 | 
[V:1] z8 | 
[V:2] z8 | 
[V:3] g2fef4 | 
[V:4] z4D4 | 
[V:1] z8 | 
[V:2] z8 | 
[V:3] e4z2a2- | 
[V:4] E2C4B,A, | 
[V:1] z8 | 
[V:2] z8 | 
[V:3] a2g2f2ed | 
[V:4] B,4A,4 | 
[V:1] z8 | 
[V:2] z8 | 
[V:3] c2f3efg | 
[V:4] z2A,3G,A,B, | 
[V:1] z8 | 
[V:2] z8 | 
[V:3] e2f2g2a2- | 
[V:4] G,2A,2B,2C2- | 
[V:1] z8 | 
[V:2] z8 | 
[V:3] agabg2ag | 
[V:4] CB,CDB,2CB, | 
[V:1] z8 | 
[V:2] z8 | 
[V:3] fea2g2f2 | 
[V:4] A,G,C3B,A,2 | 
[V:1] z8 | 
[V:2] z8 | 
[V:3] g2fed4 | 
[V:4] G,2C4B,2 | 
[V:1] z8 ||  
[V:2] z8 ||  
[V:3] c8 ||  
[V:4] C8 ||  
[V:1]  [K:C] [K:clef=treble][M:2/1]c8 | 
[V:2]  [K:C] [K:clef=treble-8][M:2/1]c8 | 
[V:3]  [K:C] [K:clef=treble-8][M:2/1]e4e4 | 
[V:4]  [K:C] [K:clef=bass][M:2/1]C,8 | 
[V:1] d4e4 | 
[V:2] B4c4 | 
[V:3] d4g4- | 
[V:4] G,4C,2C2 | 
[V:1] d2B2c4 | 
[V:2] d2G2c4 | 
[V:3] g4^f4 | 
[V:4] G,2B,2A,4 | 
[V:1] B4E4- | 
[V:2] d2B2c4 | 
[V:3] g8- | 
[V:4] G,4C,4 | 
[V:1] E4C4 | 
[V:2] B2G4g2- | 
[V:3] g8 | 
[V:4] E,8 | 
[V:1] z4D4 | 
[V:2] g2^fe^f4 | 
[V:3] a8 | 
[V:4] D,4z2D,2 | 
[V:1] B,2E4DC | 
[V:2] g2G2A2c2- | 
[V:3] g8 | 
[V:4] E,2C,2C4 | 
[V:1] D4C2c2- | 
[V:2] c2B2c4 | 
[V:3] z8 | 
[V:4] G,4C,4 | 
[V:1] c2d4cB | 
[V:2] A2_B4AG | 
[V:3] f6f2 | 
[V:4] z8 | 
[V:1] A4G4- | 
[V:2] F4c4- | 
[V:3] f4e4- | 
[V:4] z4C,4- | 
[V:1] G2A3GF2- | 
[V:2] c4A4- | 
[V:3] e2d2d4- | 
[V:4] C,4D,4 | 
[V:1] F2EDE4 | 
[V:2] A4a4- | 
[V:3] d4^c4 | 
[V:4] A,8 | 
[V:1] D2d4cB | 
[V:2] a4f4- | 
[V:3] d4a4- | 
[V:4] D,8 | 
[V:1] c4B4- | 
[V:2] f4g4 | 
[V:3] a4g4- | 
[V:4] z8 | 
[V:1] B4A4 | 
[V:2] e4a4- | 
[V:3] g4f4 | 
[V:4] z8 | 
[V:1] B4c4 | 
[V:2] a2g2g4- | 
[V:3] e8 | 
[V:4] z8 | 
[V:1] A8 | 
[V:2] g4^f4 | 
[V:3] d8 | 
[V:4] D,8 | 
[V:1] G8 | 
[V:2] z2g4fe | 
[V:3] z8 | 
[V:4] z4G,4 | 
[V:1] z8 | 
[V:2] f2g2e2f2- | 
[V:3] z8 | 
[V:4] A,2B,2C2D2- | 
[V:1] z4z2d2 | 
[V:2] f2e2d4 | 
[V:3] z8 | 
[V:4] D2C4B,2 | 
[V:1] e2g4f2 | 
[V:2] c2e4f2 | 
[V:3] z4z2d2 | 
[V:4] C4z4 | 
[V:1] e2dcB4 | 
[V:2] g8 | 
[V:3] e6d2 | 
[V:4] z4z2G,2 | 
[V:1] z2e4d2 | 
[V:2] z2g2g4 | 
[V:3] c4B4 | 
[V:4] A,2C2G,4 | 
[V:1] c4B4 | 
[V:2] z2g2g4 | 
[V:3] c4d4 | 
[V:4] C,4z2G,2 | 
[V:1] z2e4d2 | 
[V:2] z2g2g4 | 
[V:3] z4z2d2 | 
[V:4] A,2C2G,4 | 
[V:1] c4B4 | 
[V:2] z2g2g4 | 
[V:3] e6d2 | 
[V:4] C,4z2G,2 | 
[V:1] z2e4d2 | 
[V:2] z2g2g4 | 
[V:3] c4B4 | 
[V:4] A,2C2G,4 | 
[V:1] c4B4 | 
[V:2] z2g2g4 | 
[V:3] c4d4 | 
[V:4] C,4z2G,2 | 
[V:1] z2e4d2 | 
[V:2] z2g2g3f | 
[V:3] z8 | 
[V:4] A,2C2G,4 | 
[V:1] c2e4d2 | 
[V:2] edc4d2 | 
[V:3] g6f2 | 
[V:4] C,3D,E,2F,2 | 
[V:1] c2f2e2de | 
[V:2] e2f2g4 | 
[V:3] e2d2c4 | 
[V:4] C,2z2C,4 | 
[V:1] fedcB3A | 
[V:2] f2a2g4 | 
[V:3] d8 | 
[V:4] F,4G,4 | 
[V:1] c3BA2G2- | 
[V:2] e2g2f2e2- | 
[V:3] c8 | 
[V:4] C,4z4 | 
[V:1] G2FED4 | 
[V:2] e2dcB4 | 
[V:3] G8 | 
[V:4] z8 | 
[V:1] C6c2- | 
[V:2] c8 | 
[V:3] g6f2 | 
[V:4] C,8- | 
[V:1] c2d2e2dc | 
[V:2] G8 | 
[V:3] e2d2c4 | 
[V:4] C,8 | 
[V:1] B2c4B2 | 
[V:2] z4G4 | 
[V:3] d8 | 
[V:4] G,8 | 
[V:1] c8- | 
[V:2] E2A4GF | 
[V:3] c8- | 
[V:4] C,8- | 
[V:1] c8 ||  
[V:2] G8 ||  
[V:3] c8 ||  
[V:4] C,8 ||  
[V:1]  [K:C] [K:clef=treble][M:2/1]z8 | 
[V:2]  [K:C] [K:clef=treble-8][M:2/1]z8 | 
[V:3]  [K:C] [K:clef=treble-8][M:2/1]c8 | 
[V:4]  [K:C] [K:clef=bass][M:2/1]C6B,A, | 
[V:1] z8 | 
[V:2] z8 | 
[V:3] d4e4 | 
[V:4] B,4C4 | 
[V:1] z8 | 
[V:2] z8 | 
[V:3] f3edce2- | 
[V:4] A,3G,F,E,G,2- | 
[V:1] z8 | 
[V:2] z8 | 
[V:3] edc4B2 | 
[V:4] G,F,E,2D,4 | 
[V:1] z8 | 
[V:2] z4g4 | 
[V:3] c2g4fe | 
[V:4] C,4z4 | 
[V:1] z8 | 
[V:2] a4b4 | 
[V:3] f4d2e2- | 
[V:4] z8 | 
[V:1] z8 | 
[V:2] c'4b2ag | 
[V:3] e2dcd2c2- | 
[V:4] z8 | 
[V:1] z8 | 
[V:2] feg4^f2 | 
[V:3] c2B2A4 | 
[V:4] z4D,4 | 
[V:1] z8 | 
[V:2] g3fedc2- | 
[V:3] G4z4 | 
[V:4] E,3F,G,2A,G, | 
[V:1] z8 | 
[V:2] c2B2A4 | 
[V:3] z8 | 
[V:4] F,E,G,4^F,2 | 
[V:1] z8 | 
[V:2] G2g4fe | 
[V:3] z4G4 | 
[V:4] G,4z4 | 
[V:1] z8 | 
[V:2] f2e3cf2- | 
[V:3] A3Bc2d2- | 
[V:4] z8 | 
[V:1] z8 | 
[V:2] fedcd4 | 
[V:3] dcc4B2 | 
[V:4] z4G,4 | 
[V:1] z8 | 
[V:2] c4z4 | 
[V:3] c3de2f2- | 
[V:4] A,3B,C2DC | 
[V:1] z8 | 
[V:2] z4z2d2 | 
[V:3] fge2d4 | 
[V:4] B,A,C4B,2 | 
[V:1] z8 | 
[V:2] e4f4 | 
[V:3] c4z2c2 | 
[V:4] C4z4 | 
[V:1] z8 | 
[V:2] g4z4 | 
[V:3] e4f4 | 
[V:4] z4z2D2 | 
[V:1] z8 | 
[V:2] z8 | 
[V:3] gfedg2f2- | 
[V:4] C4B,2A,2- | 
[V:1] z8 | 
[V:2] z4z2a2 | 
[V:3] fee4d2 | 
[V:4] A,2G,2F,4 | 
[V:1] z8 | 
[V:2] g3ef2e2- | 
[V:3] e4z4 | 
[V:4] E,4z2A,2 | 
[V:1] z8 | 
[V:2] e2d2e4 | 
[V:3] z8 | 
[V:4] G,2F,2E,4 | 
[V:1] z8 | 
[V:2] z8 | 
[V:3] z2f2e3c | 
[V:4] D,4z2G,2 | 
[V:1] z8 | 
[V:2] z2c2d4 | 
[V:3] d2c4B2 | 
[V:4] F,2E,2D,4 | 
[V:1] z8 | 
[V:2] e4f2g2- | 
[V:3] c3BA2G2- | 
[V:4] C,4z4 | 
[V:1] z8 | 
[V:2] g2fef2g2- | 
[V:3] GABcd2e2- | 
[V:4] z4z2C,2- | 
[V:1] z8 | 
[V:2] gfe2d2d2 | 
[V:3] edc4B2 | 
[V:4] C,D,E,2F,2G,2 | 
[V:1] z8 ||  
[V:2] c8 ||  
[V:3] c8 ||  
[V:4] C,8 ||  



